dist/img/svg/quotes.svg

<svg width="89" height="66" viewBox="0 0 89 66" fill="none" xmlns="http://www.w3.org/2000/svg">
<path d="M20.2284 26.8206H20.2284C23.9044 26.8204 27.5051 27.8543 30.614 29.8025C33.7229 31.7507 36.2128 34.5333 37.7961 37.8283C39.3793 41.1232 39.9914 44.796 39.5617 48.4218C39.132 52.0477 37.678 55.4789 35.3676 58.3185C33.0571 61.1582 29.9844 63.2902 26.5048 64.4675C23.0252 65.6449 19.2811 65.8192 15.7058 64.9705C12.1305 64.1217 8.87052 62.2845 6.30275 59.6719C3.735 57.0594 1.96437 53.7782 1.19524 50.2081L1.08855 49.7129L1.00563 49.7319L0.974872 49.5265C0.974843 49.5263 0.974814 49.5261 0.974785 49.5259C0.886212 48.923 0.764398 48.0657 0.699301 47.1859L0.69944 47.1859L0.698288 47.1742C0.514622 45.2969 0.426072 42.6902 0.57575 39.5469C0.756187 36.4137 1.22217 32.7564 2.26189 28.9103C2.81091 26.9904 3.48141 25.0184 4.31193 23.0929C4.40946 22.8884 4.50614 22.6845 4.60252 22.4811C5.43377 20.7274 6.24269 19.0208 7.37646 17.452L7.38952 17.4339L7.40093 17.4147C8.49487 15.5758 9.9106 13.9502 11.3708 12.3761L11.3839 12.362L11.3959 12.3469C12.0332 11.5438 12.79 10.8603 13.5894 10.2037C13.8724 9.97124 14.1663 9.73796 14.462 9.50321C14.9811 9.0912 15.5059 8.67463 15.9878 8.24986C16.7315 7.63416 17.5307 7.12915 18.3452 6.65377C18.6201 6.49331 18.9007 6.33407 19.1819 6.17454C19.7215 5.86839 20.263 5.56112 20.7699 5.24194L20.7699 5.24205L20.7796 5.23567C21.497 4.76038 22.2486 4.41805 23.0096 4.11363C23.2784 4.00609 23.5559 3.90064 23.8344 3.79479C24.3182 3.61092 24.8053 3.42583 25.2559 3.2264C25.621 3.08543 25.969 2.94464 26.3033 2.80942C27.321 2.39776 28.2112 2.03764 29.0679 1.88058L29.0838 1.87766L29.0995 1.87371C29.7763 1.70369 30.3945 1.55254 30.9613 1.41397C31.3867 1.30996 31.7831 1.21304 32.1535 1.12055C32.1543 1.12036 32.155 1.12016 32.1558 1.11997L34.3193 0.601441L36.2448 8.24717L34.5428 8.95008L34.5414 8.95068L32.1687 9.92175C31.6456 10.0925 31.1517 10.3499 30.6747 10.6264C30.4567 10.7528 30.2371 10.8862 30.0186 11.019C29.9949 11.0334 29.9711 11.0478 29.9474 11.0622C29.7037 11.2102 29.46 11.3574 29.2094 11.5002L29.1948 11.5085L29.1807 11.5178C28.8589 11.7311 28.5193 11.917 28.1521 12.1179C27.9782 12.2131 27.7982 12.3117 27.6109 12.4181C27.0506 12.7366 26.4625 13.1075 25.9449 13.6131C25.598 13.9318 25.2214 14.2233 24.8209 14.5331C24.6892 14.6351 24.5548 14.7391 24.4181 14.8467C23.8764 15.273 23.3157 15.7433 22.8351 16.3182L22.8293 16.3252L22.8237 16.3323C22.526 16.7161 22.1951 17.0635 21.8436 17.4326C21.7137 17.5691 21.5809 17.7085 21.4459 17.8538C20.9658 18.3708 20.4797 18.9418 20.1203 19.6349C20.1021 19.6623 20.0839 19.6899 20.0656 19.7174C19.3138 20.8522 18.5289 22.0369 18.015 23.4021C17.4906 24.3811 17.1662 25.4591 16.8654 26.4638L16.6409 27.2142L17.416 27.1021C17.4849 27.0921 17.5536 27.0821 17.622 27.0721C18.504 26.9438 19.3507 26.8206 20.2284 26.8206ZM65.6702 26.4638L65.4456 27.2142L66.2207 27.1021C66.2896 27.0921 66.3583 27.0821 66.4268 27.0721C67.3088 26.9438 68.1555 26.8206 69.0331 26.8206C72.7091 26.8204 76.3099 27.8543 79.4188 29.8025C82.5277 31.7507 85.0176 34.5333 86.6008 37.8283C88.1841 41.1232 88.7961 44.796 88.3664 48.4218C87.9367 52.0477 86.4827 55.4789 84.1723 58.3185C81.8618 61.1582 78.7891 63.2902 75.3095 64.4675C71.8299 65.6449 68.0858 65.8192 64.5105 64.9705C60.9352 64.1217 57.6753 62.2845 55.1075 59.6719C52.5397 57.0594 50.7691 53.7782 50 50.2081L49.8933 49.7129L49.8104 49.7319L49.7796 49.5265C49.7796 49.5265 49.7796 49.5265 49.7796 49.5264C49.691 48.9235 49.5691 48.0659 49.504 47.1859L49.5042 47.1859L49.503 47.1742C49.3194 45.297 49.2308 42.6903 49.3805 39.5473C49.5609 36.4139 50.0269 32.7565 51.0666 28.9103C51.6157 26.9904 52.2862 25.0183 53.1167 23.0929C53.2142 22.8884 53.3109 22.6845 53.4073 22.4811C54.2385 20.7274 55.0474 19.0208 56.1812 17.452L56.1943 17.4339L56.2057 17.4147C57.2996 15.5758 58.7153 13.9502 60.1756 12.3761L60.1885 12.3622L60.2003 12.3474C60.8376 11.5463 61.5945 10.8638 62.3939 10.2077C62.6755 9.97661 62.9677 9.74476 63.2618 9.51143C63.7825 9.0983 64.309 8.68055 64.7925 8.25429C65.5362 7.63857 66.3354 7.13357 67.1499 6.65818C67.4248 6.49772 67.7055 6.3385 67.9866 6.17897C68.5262 5.87281 69.0677 5.56554 69.5746 5.24634L69.5747 5.24648L69.5851 5.23952C70.302 4.76252 71.0542 4.42036 71.8159 4.11588C72.0771 4.01144 72.3462 3.90908 72.6163 3.80633C73.1081 3.61923 73.6034 3.43081 74.0615 3.22606C74.4263 3.0852 74.774 2.94453 75.108 2.80941C76.1257 2.39776 77.016 2.03764 77.8726 1.88058L77.8885 1.87766L77.9043 1.87371C78.5809 1.7037 79.1991 1.55256 79.7659 1.41399C80.1913 1.30997 80.5878 1.21304 80.9582 1.12054C80.959 1.12035 80.9598 1.12016 80.9605 1.11997L83.124 0.601441L85.0496 8.24717L83.3476 8.95008L83.3461 8.95068L80.9735 9.92174C80.4504 10.0925 79.9565 10.3499 79.4794 10.6264C79.2613 10.7528 79.0415 10.8864 78.823 11.0192L78.7522 11.0622C78.5085 11.2102 78.2648 11.3574 78.0141 11.5002L77.9995 11.5085L77.9855 11.5178C77.6636 11.7311 77.324 11.917 76.9568 12.1179C76.783 12.2131 76.6029 12.3117 76.4156 12.4181C75.8554 12.7366 75.2673 13.1075 74.7497 13.613C74.4028 13.9318 74.0262 14.2232 73.6257 14.5331C73.4939 14.6351 73.3595 14.7391 73.2228 14.8467C72.6811 15.273 72.1204 15.7433 71.6398 16.3182L71.634 16.3252L71.6285 16.3323C71.3307 16.7161 70.9998 17.0635 70.6483 17.4327C70.5184 17.5691 70.3856 17.7085 70.2507 17.8538C69.7705 18.3708 69.2844 18.9418 68.925 19.6348L68.8703 19.7174C68.1185 20.8523 67.3337 22.0369 66.8198 23.4021C66.2953 24.3811 65.9709 25.4591 65.6702 26.4638Z" fill="#0059AC" stroke="black"/>
</svg>

<svg width="89" height="66" fill="none" xmlns="http://www.w3.org/2000/svg"><path d="M20.228 26.82h0c3.676 0 7.277 1.034 10.386 2.982a19.382 19.382 0 017.182 8.026 19.23 19.23 0 011.766 10.594 19.275 19.275 0 01-4.194 9.897 19.466 19.466 0 01-8.863 6.148 19.587 19.587 0 01-10.8.504 19.498 19.498 0 01-9.402-5.3 19.301 19.301 0 01-5.108-9.463l-.106-.495-.083.019-.031-.206s0 0 0 0a32.99 32.99 0 01-.276-2.34h0v-.012C.514 45.297.425 42.69.575 39.547c.18-3.133.646-6.79 1.686-10.637a48.145 48.145 0 012.05-5.817l.29-.612c.832-1.754 1.64-3.46 2.774-5.029l.014-.018.01-.02c1.095-1.838 2.51-3.464 3.97-5.038l.014-.014.012-.015c.637-.803 1.394-1.487 2.193-2.143.283-.233.577-.466.873-.7.52-.413 1.044-.83 1.526-1.254.744-.616 1.543-1.12 2.357-1.596.275-.16.556-.32.837-.48.54-.306 1.081-.613 1.588-.932h0l.01-.006c.717-.476 1.469-.818 2.23-1.122.268-.108.546-.213.824-.32.484-.183.971-.368 1.422-.568.365-.14.713-.281 1.047-.417 1.018-.411 1.908-.771 2.765-.928l.016-.003.015-.004c.677-.17 1.296-.321 1.862-.46l1.193-.293.002-.001 2.163-.519 1.926 7.646-1.702.703h-.002l-2.372.972c-.523.17-1.017.428-1.494.704-.218.127-.438.26-.656.393l-.072.043c-.243.148-.487.295-.738.438l-.014.008-.014.01c-.322.213-.662.399-1.029.6a38.74 38.74 0 00-.541.3c-.56.319-1.149.69-1.666 1.195-.347.319-.724.61-1.124.92l-.403.314c-.542.426-1.102.896-1.583 1.471l-.006.007-.005.007c-.298.384-.629.732-.98 1.1-.13.137-.263.277-.398.422-.48.517-.966 1.088-1.326 1.78l-.054.083c-.752 1.135-1.537 2.32-2.051 3.685-.524.98-.849 2.057-1.15 3.062l-.224.75.775-.112.206-.03c.882-.128 1.729-.251 2.606-.251zm45.442-.356l-.224.75.775-.112.206-.03c.882-.128 1.728-.251 2.606-.251a19.56 19.56 0 0110.386 2.981 19.381 19.381 0 017.182 8.026 19.229 19.229 0 011.765 10.594 19.275 19.275 0 01-4.194 9.897 19.466 19.466 0 01-8.862 6.148 19.587 19.587 0 01-10.8.504 19.498 19.498 0 01-9.403-5.3A19.3 19.3 0 0150 50.209l-.107-.495-.083.019-.03-.206s0 0 0 0a33.23 33.23 0 01-.276-2.34h0l-.001-.012c-.184-1.877-.272-4.484-.123-7.627.18-3.133.647-6.79 1.687-10.637a48.19 48.19 0 012.05-5.817l.29-.612c.832-1.754 1.64-3.46 2.774-5.029l.013-.018.012-.02c1.094-1.838 2.51-3.464 3.97-5.038l.012-.014.012-.015c.638-.8 1.394-1.483 2.194-2.14.282-.23.574-.462.868-.696.52-.413 1.047-.83 1.53-1.257.744-.615 1.543-1.12 2.358-1.596.275-.16.555-.32.837-.479.54-.306 1.08-.613 1.588-.933h0l.01-.006c.717-.477 1.47-.82 2.23-1.124.262-.105.531-.207.801-.31.492-.187.987-.375 1.445-.58.365-.14.713-.281 1.047-.417 1.018-.411 1.908-.771 2.765-.928l.015-.003.016-.004c.677-.17 1.295-.321 1.862-.46.425-.104.822-.201 1.192-.293l.002-.001 2.164-.519 1.926 7.646-1.702.703h-.002l-2.373.972c-.523.17-1.016.428-1.494.704-.218.127-.438.26-.656.393l-.07.043c-.245.148-.488.295-.739.438l-.014.008-.014.01c-.322.213-.662.399-1.03.6-.173.095-.353.194-.54.3-.56.319-1.149.69-1.666 1.195-.347.319-.724.61-1.124.92-.132.102-.267.206-.403.314-.542.426-1.103.896-1.583 1.471l-.006.007-.005.007c-.298.384-.63.732-.98 1.1-.13.137-.263.277-.398.422-.48.517-.967 1.088-1.326 1.78l-.055.083c-.752 1.135-1.536 2.32-2.05 3.685-.525.98-.85 2.057-1.15 3.062z" fill="#0059AC" stroke="#000"/></svg>
